images/stat_engaged_engineers.svg

<svg width="85" height="85" viewBox="0 0 85 85" fill="none" xmlns="http://www.w3.org/2000/svg">
<path d="M21.0565 81.9852C20.3845 81.9852 19.808 81.4778 19.739 80.7952L18.6712 70.5474H12.5405C10.8352 70.5474 9.37162 69.2217 9.20429 67.527L8.42865 59.5531H5.20929C4.25037 59.5531 3.45615 59.1466 3.03115 58.4349C2.60616 57.7256 2.6221 56.8305 3.07632 55.9857L7.71679 45.706L7.54943 42.7416C7.54679 37.6629 9.83913 32.7675 13.8368 29.2345C14.384 28.7485 15.226 28.7989 15.7121 29.3514C16.1982 29.9013 16.1451 30.7407 15.5952 31.2267C12.1155 34.2975 10.203 38.3614 10.203 42.6674L10.3863 45.8813C10.3996 46.0938 10.3598 46.3089 10.2721 46.503L5.57851 56.8888L9.6346 56.8967C10.3199 56.8967 10.891 57.4149 10.9574 58.0949L11.8499 67.2667C11.8818 67.5935 12.2112 67.8884 12.5405 67.8884H19.8665C20.5465 67.8884 21.1176 68.401 21.1866 69.0784L22.3793 80.5188C22.4563 81.2466 21.9251 81.9028 21.1973 81.977C21.1495 81.9825 21.1016 81.9852 21.0565 81.9852Z" fill="white"/>
<path d="M33.7818 82.0939C33.1124 82.0939 32.5361 81.5892 32.4643 80.9066L30.8839 66.1113H23.6509C21.7862 66.1113 20.1871 64.661 20.0145 62.8121L19.1034 53.4729H15.2199C14.1866 53.4729 13.3366 53.0398 12.8824 52.2856C12.4309 51.5285 12.4521 50.5721 12.9382 49.6611L18.3012 37.7849L18.1073 34.316C18.1046 27.6063 21.6294 21.2259 27.5343 17.1831C28.1373 16.7687 28.9661 16.9228 29.3777 17.5284C29.7921 18.1341 29.6406 18.9575 29.0324 19.3719C23.8527 22.9233 20.7609 28.4827 20.7609 34.2416L20.9707 37.9575C20.984 38.1727 20.9441 38.3852 20.8565 38.5792L15.3368 50.7952L20.3093 50.8166C20.9946 50.8166 21.5657 51.3345 21.6321 52.0145L22.6601 62.5571C22.7052 63.0381 23.1674 63.4549 23.6509 63.4549H32.0766C32.7566 63.4549 33.3249 63.9649 33.3967 64.6423L35.1046 80.6275C35.1817 81.3556 34.6556 82.0116 33.9252 82.0886C33.8774 82.0913 33.8296 82.0939 33.7818 82.0939Z" fill="white"/>
<path d="M43.7561 62.3287H36.8872C34.8683 62.3287 33.1419 60.7589 32.9505 58.7534L31.9094 48.0408H27.3564C26.2515 48.0408 25.3431 47.5812 24.865 46.779C24.3868 45.9797 24.4107 44.9623 24.9367 43.9875L31.0143 30.5123L30.7936 26.5437C30.791 13.2652 42.6033 2.52332 57.1251 2.52332C71.4582 2.52332 82.2719 13.8443 82.2719 28.8522C82.2719 34.5841 80.8694 40.0429 77.9794 45.5359C77.6394 46.1866 76.8319 46.4311 76.1862 46.0937C75.5356 45.7537 75.2858 44.9489 75.6285 44.3008C78.3112 39.1955 79.6156 34.1433 79.6156 28.8522C79.6156 15.3557 69.9469 5.17957 57.1251 5.17957C44.0697 5.17957 33.4473 14.7314 33.4473 26.4722L33.6836 30.6902C33.6971 30.9027 33.6572 31.1152 33.5696 31.309L27.3168 45.1666C27.2661 45.2598 27.2344 45.334 27.213 45.3847C27.2555 45.3873 27.298 45.3873 27.3564 45.3873H33.1153C33.8005 45.3873 34.3718 45.9052 34.438 46.5879L35.5961 58.5037C35.6547 59.1386 36.2471 59.6726 36.8872 59.6726H43.7561C44.4894 59.6726 45.0844 60.2676 45.0844 61.0007C45.0844 61.7337 44.4894 62.3287 43.7561 62.3287Z" fill="white"/>
<path d="M59.4947 47.6188H54.7186C54.0946 47.6188 53.5553 47.183 53.4225 46.5721L52.6361 42.9808C51.534 42.6595 50.4742 42.2184 49.4647 41.6633L46.3675 43.6476C45.8417 43.9849 45.1535 43.9105 44.7126 43.4696L41.3367 40.0937C40.8956 39.6526 40.8211 38.962 41.1585 38.4388L43.1428 35.3416C42.5876 34.3321 42.1468 33.2723 41.8253 32.1699L38.2342 31.3838C37.6204 31.2508 37.1875 30.7117 37.1875 30.0848V25.3062C37.1875 24.682 37.6204 24.1428 38.2315 24.0099L41.82 23.2237C42.1442 22.1187 42.5876 21.0588 43.1401 20.0521L41.1558 16.9549C40.8185 16.4317 40.8929 15.741 41.334 15.3001L44.71 11.924C45.1508 11.4831 45.839 11.4087 46.3649 11.746L49.4621 13.7303C50.4742 13.1751 51.534 12.7342 52.6335 12.4128L53.4199 8.8215C53.5526 8.21323 54.0919 7.77759 54.716 7.77759H59.4947C60.119 7.77759 60.6581 8.21056 60.7908 8.8215L61.5772 12.4154C62.6769 12.7342 63.7368 13.1751 64.7486 13.7303L67.8458 11.746C68.3746 11.406 69.0625 11.4804 69.5033 11.9213L72.8796 15.2974C73.3204 15.7384 73.3949 16.429 73.0575 16.9523L71.0758 20.0548C71.631 21.0668 72.0721 22.1267 72.3907 23.2237L75.9847 24.0099C76.5929 24.1428 77.0285 24.682 77.0285 25.3062V30.0848C77.0285 30.7091 76.5956 31.2481 75.9847 31.3809L72.3907 32.1673C72.0721 33.2644 71.631 34.3269 71.0758 35.3363L73.0601 38.4359C73.3975 38.9594 73.3231 39.6499 72.8822 40.0908L69.506 43.4696C69.0625 43.9131 68.3746 43.9796 67.8511 43.6476L64.7542 41.6606C63.7447 42.2158 62.6849 42.6542 61.5825 42.9755L60.7961 46.5695C60.6607 47.183 60.1217 47.6188 59.4947 47.6188ZM55.7867 44.9624H58.4269L59.1574 41.6208C59.2661 41.1216 59.6542 40.7256 60.1507 40.6089C61.5426 40.2848 62.8628 39.7349 64.0794 38.9805C64.5097 38.7123 65.0649 38.7123 65.4951 38.9913L68.3772 40.8373L70.2446 38.9699L68.3983 36.0878C68.1222 35.6576 68.1196 35.1077 68.3851 34.6748C69.1475 33.4423 69.6947 32.1221 70.016 30.7437C70.1329 30.2442 70.526 29.8591 71.0254 29.7501L74.3671 29.0196V26.3767L71.0281 25.6435C70.5286 25.5346 70.1356 25.1468 70.0186 24.6501C69.6974 23.2688 69.1501 21.9487 68.3878 20.7188C68.1196 20.2859 68.1249 19.736 68.401 19.3057L70.2472 16.4237L68.3799 14.5563L65.4978 16.4024C65.0675 16.6813 64.5176 16.6813 64.0821 16.4131C62.8601 15.656 61.54 15.1088 60.1533 14.7848C59.6542 14.6679 59.269 14.2748 59.16 13.7754L58.4296 10.4338H55.7893L55.0589 13.7754C54.9499 14.2748 54.5621 14.6679 54.0626 14.7848C52.6789 15.1062 51.3585 15.6534 50.1342 16.4131C49.701 16.6813 49.1511 16.6813 48.7182 16.4024L45.8364 14.5563L43.969 16.4237L45.815 19.3057C46.0911 19.736 46.094 20.2885 45.8256 20.7215C45.0714 21.9354 44.5215 23.2582 44.1894 24.6528C44.0725 25.1521 43.6821 25.5346 43.1826 25.6435L39.8436 26.3767V29.017L43.1853 29.7474C43.6847 29.8564 44.0778 30.2442 44.1947 30.7408C44.5189 32.1301 45.0658 33.4528 45.8229 34.6695C46.094 35.1024 46.0911 35.6549 45.8124 36.0852L43.9661 38.9673L45.8335 40.8346L48.7156 38.9884C49.1485 38.7123 49.7036 38.7123 50.1315 38.9778C51.3506 39.7349 52.6707 40.2848 54.06 40.6063C54.5594 40.723 54.9472 41.1163 55.056 41.6181L55.7867 44.9624ZM57.1042 36.9964C51.9775 36.9964 47.8072 32.8262 47.8072 27.6995C47.8072 22.5729 51.9775 18.4026 57.1042 18.4026C62.2306 18.4026 66.4008 22.5729 66.4008 27.6995C66.4008 32.8262 62.2306 36.9964 57.1042 36.9964ZM57.1042 21.0588C53.441 21.0588 50.4633 24.0365 50.4633 27.6995C50.4633 31.3624 53.441 34.3401 57.1042 34.3401C60.7671 34.3401 63.7447 31.3624 63.7447 27.6995C63.7447 24.0365 60.7671 21.0588 57.1042 21.0588Z" fill="white"/>
<path d="M67.583 79.5123H63.641C63.0167 79.5123 62.4777 79.0767 62.3449 78.4656L61.7285 75.6369C60.8973 75.3845 60.0898 75.0498 59.3219 74.638L56.8782 76.1999C56.3524 76.5399 55.6642 76.4628 55.2234 76.022L52.4342 73.2328C51.9934 72.792 51.9189 72.1014 52.2563 71.5753L53.8235 69.137C53.4091 68.3667 53.0744 67.5592 52.8223 66.7303L49.9959 66.1116C49.3877 65.9788 48.9492 65.4395 48.9492 64.8152V60.8735C48.9492 60.2492 49.385 59.7099 49.9959 59.5771L52.8223 58.9581C53.0744 58.1269 53.4091 57.322 53.8235 56.5517L52.2563 54.1078C51.9189 53.5846 51.9934 52.8941 52.4342 52.453L55.2207 49.6667C55.6616 49.2256 56.3498 49.1488 56.8756 49.4888L59.3192 51.0505C60.0869 50.6389 60.8944 50.3016 61.7259 50.0492L62.3423 47.2255C62.475 46.6173 63.0141 46.1791 63.6384 46.1791H67.5803C68.2017 46.1791 68.7437 46.612 68.8764 47.2228L69.4955 50.0492C70.3267 50.3016 71.1316 50.6363 71.9048 51.0505L74.3431 49.4888C74.8689 49.1541 75.5542 49.2256 75.998 49.6667L78.7842 52.453C79.2253 52.8941 79.2998 53.582 78.9624 54.1078L77.4005 56.5517C77.8123 57.322 78.1494 58.1295 78.4017 58.9581L81.2281 59.5771C81.8363 59.7099 82.2748 60.2492 82.2748 60.8735V64.8126C82.2748 65.4369 81.8389 65.9762 81.2281 66.1089L78.3991 66.7277C78.1494 67.5592 77.8149 68.3614 77.4005 69.1344L78.9624 71.5753C79.2998 72.0988 79.2253 72.7894 78.7842 73.2302L75.998 76.0194C75.5542 76.4628 74.8584 76.5294 74.3431 76.1973L71.9048 74.6327C71.1316 75.0445 70.3267 75.3792 69.4955 75.6316L68.8764 78.463C68.7489 79.0794 68.2099 79.5123 67.583 79.5123ZM64.7114 76.8562H66.5152L67.0809 74.2769C67.1899 73.7774 67.5803 73.3844 68.0769 73.2674C69.1927 73.0071 70.2578 72.5663 71.2485 71.9552C71.6788 71.6844 72.2313 71.687 72.6616 71.966L74.8798 73.387L76.1548 72.112L74.7335 69.8914C74.4574 69.4612 74.4548 68.9113 74.723 68.4755C75.3364 67.4848 75.7775 66.4196 76.0352 65.3094C76.1519 64.8099 76.5425 64.4195 77.0473 64.3105L79.6237 63.7474V61.9413L77.0525 61.378C76.5531 61.2692 76.16 60.8814 76.0431 60.3846C75.7775 59.2664 75.3338 58.2013 74.723 57.213C74.4519 56.7774 74.4548 56.2276 74.7335 55.7973L76.1548 53.5741L74.8798 52.2991L72.6616 53.7201C72.2313 53.9964 71.6788 53.9964 71.2485 53.7306C70.2552 53.1171 69.1874 52.6737 68.0742 52.4105C67.575 52.2938 67.1899 51.9031 67.0809 51.4039L66.5152 48.8326H64.7088L64.1484 51.3987C64.0394 51.8978 63.6516 52.2912 63.155 52.4078C62.0339 52.6737 60.9688 53.1171 59.9834 53.728C59.5557 53.9964 59.0006 53.9964 58.5677 53.7174L56.3442 52.2964L55.0692 53.5714L56.4957 55.7946C56.7719 56.2249 56.7748 56.7748 56.5063 57.2103C55.8955 58.1987 55.4517 59.2638 55.1862 60.382C55.0692 60.8814 54.6788 61.2666 54.1767 61.3753L51.6056 61.9387V63.7448L54.1767 64.3078C54.6762 64.4169 55.0692 64.8046 55.1862 65.3014C55.4517 66.4196 55.8955 67.4848 56.5063 68.4728C56.7774 68.9087 56.7745 69.4585 56.4957 69.8914L55.0719 72.112L56.3442 73.3844L58.5677 71.9631C59.0006 71.687 59.5557 71.687 59.9834 71.9526C60.9635 72.561 62.0313 73.0045 63.1524 73.2648C63.6516 73.3817 64.0394 73.7748 64.1484 74.2769L64.7114 76.8562ZM65.6119 70.7467C61.2531 70.7467 57.7098 67.2031 57.7098 62.8444C57.7098 58.4853 61.2531 54.942 65.6119 54.942C69.9709 54.942 73.5142 58.4853 73.5142 62.8444C73.5142 67.2031 69.9709 70.7467 65.6119 70.7467ZM65.6119 57.601C62.7192 57.601 60.3659 59.9544 60.3659 62.847C60.3659 65.7396 62.7192 68.093 65.6119 68.093C68.5048 68.093 70.8581 65.7396 70.8581 62.847C70.8581 59.9544 68.5048 57.601 65.6119 57.601Z" fill="white"/>
</svg>

<svg xmlns="http://www.w3.org/2000/svg" width="85" height="85" fill="#fff"  xmlns:v="https://vecta.io/nano"><path d="M21.057 81.985c-.672 0-1.248-.507-1.317-1.2l-1.07-10.238h-6.13a3.38 3.38 0 0 1-3.336-3.02l-.776-7.974H5.2c-.96 0-1.753-.407-2.178-1.118s-.4-1.604.045-2.45l4.64-10.28-.167-2.964c-.003-5.08 2.3-9.974 6.287-13.507.547-.486 1.4-.436 1.875.117a1.33 1.33 0 0 1-.117 1.875c-3.48 3.07-5.392 7.135-5.392 11.44l.183 3.214a1.33 1.33 0 0 1-.114.622L5.58 56.9l4.056.008a1.33 1.33 0 0 1 1.323 1.198l.893 9.172c.032.327.36.622.7.622h7.326c.68 0 1.25.513 1.32 1.2l1.193 11.44a1.33 1.33 0 0 1-1.182 1.458c-.048.005-.096.008-.14.008zm12.725.11c-.67 0-1.246-.505-1.317-1.187l-1.58-14.795H23.65a3.68 3.68 0 0 1-3.636-3.299l-.9-9.34H15.22c-1.033 0-1.883-.433-2.338-1.187s-.43-1.714.056-2.625L18.3 37.785l-.194-3.47c-.003-6.7 3.522-13.1 9.427-17.133.603-.414 1.432-.26 1.843.345s.263 1.43-.345 1.843c-5.18 3.55-8.27 9.1-8.27 14.87l.2 3.716a1.31 1.31 0 0 1-.114.622l-5.52 12.216 4.973.02a1.33 1.33 0 0 1 1.323 1.198l1.028 10.543a1.04 1.04 0 0 0 .991.898h8.426c.68 0 1.248.5 1.32 1.187l1.708 15.985a1.33 1.33 0 0 1-1.179 1.461c-.048.003-.096.005-.143.005zm9.974-19.764h-6.87c-2.02 0-3.745-1.57-3.937-3.575L31.9 48.04h-4.553c-1.105 0-2.013-.46-2.5-1.262s-.454-1.817.072-2.792l6.078-13.475-.22-3.97c-.003-13.28 11.8-24.02 26.332-24.02 14.333 0 25.147 11.32 25.147 26.33 0 5.732-1.403 11.2-4.293 16.684a1.33 1.33 0 0 1-1.793.558c-.65-.34-.9-1.145-.558-1.793 2.683-5.105 3.987-10.157 3.987-15.45 0-13.496-9.67-23.673-22.5-23.673-13.055 0-23.678 9.552-23.678 21.293l.236 4.218a1.3 1.3 0 0 1-.114.62L27.3 45.166a2.64 2.64 0 0 0-.104.218 2.36 2.36 0 0 0 .143.003h5.76c.685 0 1.257.518 1.323 1.2L35.6 58.503a1.34 1.34 0 0 0 1.291 1.169h6.87A1.33 1.33 0 0 1 45.079 61a1.33 1.33 0 0 1-1.328 1.328zm15.74-14.7H54.72c-.624 0-1.163-.436-1.296-1.047l-.786-3.6a15.68 15.68 0 0 1-3.171-1.318L46.37 43.65c-.526.337-1.214.263-1.655-.178l-3.376-3.376c-.44-.44-.516-1.132-.178-1.655l1.984-3.097c-.555-1-.996-2.07-1.318-3.172l-3.6-.786c-.614-.133-1.047-.672-1.047-1.3v-4.78c0-.624.433-1.163 1.044-1.296l3.6-.786c.324-1.105.768-2.165 1.32-3.172l-1.984-3.097c-.337-.523-.263-1.214.178-1.655l3.376-3.376a1.33 1.33 0 0 1 1.655-.178l3.097 1.984c1.012-.555 2.072-.996 3.17-1.317l.786-3.6a1.33 1.33 0 0 1 1.296-1.044h4.78c.624 0 1.163.433 1.296 1.044l.786 3.594c1.1.32 2.16.76 3.17 1.315l3.097-1.984c.53-.34 1.217-.266 1.657.175l3.376 3.376a1.33 1.33 0 0 1 .178 1.655l-1.982 3.102a15.67 15.67 0 0 1 1.315 3.169l3.594.786a1.33 1.33 0 0 1 1.044 1.296v4.78c0 .624-.433 1.163-1.044 1.296l-3.594.786a15.61 15.61 0 0 1-1.315 3.169l1.984 3.1c.337.524.263 1.214-.178 1.655l-3.376 3.38a1.33 1.33 0 0 1-1.655.178l-3.097-1.987a15.68 15.68 0 0 1-3.172 1.315l-.786 3.594a1.33 1.33 0 0 1-1.3 1.05zm-3.708-2.656h2.64l.73-3.342c.1-.5.497-.895.993-1.012a13.09 13.09 0 0 0 3.93-1.628c.43-.268.985-.268 1.416.01l2.882 1.846 1.867-1.867L68.4 36.09a1.33 1.33 0 0 1-.013-1.413c.762-1.232 1.3-2.553 1.63-3.93a1.31 1.31 0 0 1 1.01-.994l3.342-.73V26.38l-3.34-.733a1.33 1.33 0 0 1-1.009-.993 13.06 13.06 0 0 0-1.631-3.931c-.268-.433-.263-.983.013-1.413l1.846-2.882-1.867-1.867-2.882 1.846a1.32 1.32 0 0 1-1.416.01 13.1 13.1 0 0 0-3.93-1.628 1.31 1.31 0 0 1-.993-1.01l-.73-3.342h-2.64l-.73 3.342a1.33 1.33 0 0 1-.996 1.009c-1.384.32-2.704.87-3.928 1.628-.433.268-.983.268-1.416-.01l-2.882-1.846-1.867 1.867 1.846 2.882a1.33 1.33 0 0 1 .011 1.416 13.25 13.25 0 0 0-1.636 3.931 1.32 1.32 0 0 1-1.007.991l-3.34.733v2.64l3.342.73a1.33 1.33 0 0 1 1.009.993 13.01 13.01 0 0 0 1.628 3.93 1.32 1.32 0 0 1-.011 1.416l-1.846 2.882 1.867 1.867 2.882-1.846c.433-.276.988-.276 1.416-.01a12.98 12.98 0 0 0 3.928 1.628 1.33 1.33 0 0 1 .996 1.012l.73 3.344zm1.317-7.966a9.31 9.31 0 0 1-9.297-9.297 9.31 9.31 0 0 1 9.297-9.297 9.31 9.31 0 0 1 9.297 9.297 9.31 9.31 0 0 1-9.297 9.297zm0-15.938a6.65 6.65 0 0 0-6.641 6.641 6.65 6.65 0 0 0 6.641 6.641 6.65 6.65 0 0 0 6.641-6.641 6.65 6.65 0 0 0-6.641-6.641zm10.48 58.452H63.64c-.624 0-1.163-.436-1.296-1.047l-.616-2.83a13.23 13.23 0 0 1-2.407-.999L56.878 76.2c-.526.34-1.214.263-1.655-.178l-2.8-2.8a1.33 1.33 0 0 1-.178-1.657l1.567-2.438a13.04 13.04 0 0 1-1-2.407l-2.826-.62a1.33 1.33 0 0 1-1.047-1.296v-3.942c0-.624.436-1.164 1.047-1.296l2.826-.62a13.21 13.21 0 0 1 1-2.406l-1.567-2.444c-.337-.523-.263-1.214.178-1.655l2.787-2.786c.44-.44 1.13-.518 1.655-.178l2.444 1.562a13.24 13.24 0 0 1 2.407-1.001l.616-2.824a1.33 1.33 0 0 1 1.296-1.046h3.942a1.33 1.33 0 0 1 1.296 1.044l.62 2.826a13.25 13.25 0 0 1 2.409 1.001l2.438-1.562a1.33 1.33 0 0 1 1.655.178l2.786 2.786c.44.44.516 1.13.178 1.655L77.4 56.552a13.38 13.38 0 0 1 1.001 2.406l2.826.62a1.33 1.33 0 0 1 1.047 1.296v3.94c0 .624-.436 1.164-1.047 1.296l-2.83.62a13 13 0 0 1-.999 2.407l1.562 2.44c.337.523.263 1.214-.178 1.655l-2.786 2.8a1.33 1.33 0 0 1-1.655.178l-2.438-1.565c-.773.412-1.578.746-2.4 1l-.62 2.83c-.127.616-.666 1.05-1.293 1.05zm-2.872-2.656h1.804l.566-2.58a1.31 1.31 0 0 1 .996-1 10.61 10.61 0 0 0 3.172-1.312c.43-.27.983-.268 1.413.01l2.218 1.42 1.275-1.275-1.42-2.22a1.33 1.33 0 0 1-.011-1.416 10.53 10.53 0 0 0 1.312-3.166c.117-.5.507-.9 1.012-1l2.576-.563V61.94l-2.57-.563a1.33 1.33 0 0 1-1.009-.993 10.74 10.74 0 0 0-1.32-3.172 1.32 1.32 0 0 1 .011-1.416l1.42-2.223L74.88 52.3l-2.218 1.42a1.33 1.33 0 0 1-1.413.011 10.73 10.73 0 0 0-3.174-1.32 1.32 1.32 0 0 1-.993-1.007l-.566-2.57H64.7l-.56 2.566a1.33 1.33 0 0 1-.993 1.009 10.73 10.73 0 0 0-3.172 1.32c-.428.268-.983.268-1.416-.01l-2.224-1.42-1.275 1.275 1.426 2.223a1.33 1.33 0 0 1 .011 1.416 10.74 10.74 0 0 0-1.32 3.172 1.32 1.32 0 0 1-1.01.993l-2.57.563v1.806l2.57.563a1.33 1.33 0 0 1 1.01.994 10.75 10.75 0 0 0 1.32 3.17 1.33 1.33 0 0 1-.01 1.42l-1.424 2.22 1.272 1.272 2.224-1.42c.433-.276.988-.276 1.416-.01a10.51 10.51 0 0 0 3.169 1.312 1.33 1.33 0 0 1 .996 1.012l.563 2.58zm.9-6.1a7.91 7.91 0 0 1-7.902-7.902 7.91 7.91 0 0 1 7.902-7.902 7.91 7.91 0 0 1 7.902 7.902 7.91 7.91 0 0 1-7.902 7.902zm0-13.146c-2.893 0-5.246 2.353-5.246 5.246s2.353 5.246 5.246 5.246 5.246-2.353 5.246-5.246S68.504 57.6 65.61 57.6z"/></svg>
